file/news-12-networks.svg

<svg clip-rule="evenodd" fill-rule="evenodd" stroke-linejoin="round" stroke-miterlimit="1.41421" viewBox="0 0 560 400" xmlns="http://www.w3.org/2000/svg"><path d="m0 0c14.321 7.037 31.155 6.841 37.663-2.786 6.883-10.182-2.411-19.978-14.336-30.701l-.34.14c9.524 8.364 16.139 19.801 12.113 26.884-5.329 9.369-18.258 10.001-32.303 5.953-3.844-1.108-9.982-3.848-11.747-5.08-.461-.321 3.371 2.85 8.95 5.59" fill="#bb1a2d" transform="matrix(1.64642903712 0 0 -1.64642903712 386.31482592 162.76610016)"/><path d="m0 0c1.954 14.264 18.486 27.757 32.878 34.511 14.903 6.988 35.633 6.663 40.834-4.547 3.821-8.228-1.803-20.27-12.336-29.518l.366-.155c13.198 11.86 22.889 22.311 15.425 33.747-7.061 10.81-31.945 10.942-52.449-2.177-4.894-3.129-23.875-12.691-24.718-31.861" fill="#1d62af" transform="matrix(1.64642903712 0 0 -1.64642903712 328.66754784 219.65265072)"/><g transform="matrix(4.66704 0 0 4.66704 97.4810544 148.27027392)"><path d="m71.315 18.379h-.663c.019-.352-.081-.827-1.152-.827h-.01c-.486.003-1.072.211-1.183.731-.058.276.076.496.608.589l1.056.187c.336.063 1.294.232 1.1 1.147-.241 1.128-1.314 1.459-2.211 1.464h-.021c-1.008 0-1.978-.35-1.718-1.583h.664l-.002.009c-.149.794.554.999 1.228.999h.016c.699-.004 1.248-.273 1.352-.759.086-.405-.197-.574-.691-.664l-.979-.168c-.512-.088-1.262-.3-1.077-1.169.175-.815.933-1.359 2.079-1.359.894 0 1.77.324 1.604 1.403zm-29.161-1.403c1.777.009 2.208 1.206 1.963 2.346-.243 1.141-1.179 2.338-2.96 2.347h-.021c-1.797 0-2.229-1.201-1.987-2.347.243-1.145 1.187-2.346 2.984-2.346zm-27.446.69h-2.93l-.276 1.293h2.842l-.122.576h-2.841l-.307 1.445h2.991l-.123.578h-3.654l.95-4.47h3.591zm47.534 3.891h-.916l-1.362-2.178-.968.72-.308 1.458h-.664l.949-4.469h.664l-.479 2.248 2.976-2.248h.939l-2.517 1.852zm-61.04 0h-.662l.949-4.468h.769l2.118 3.555h.01l.757-3.555h.663l-.949 4.468h-.77l-2.117-3.555h-.013zm30.718-4.468.456 3.629h.012l1.91-3.629h.689l-2.464 4.468h-.726l-.452-3.704h-.012l-2.02 3.704h-.733l-.521-4.468h.72l.374 3.629h.012l1.967-3.629zm21.011 4.467h-.701c-.081-.124-.041-.313.043-.849.126-.803-.092-1.045-.643-1.045h-1.732l-.403 1.894h-.664l.949-4.466h2.767.021c.877.009 1.066.623.946 1.189-.115.544-.463.944-.986 1.101l-.002.011c.382.056.536.427.449.951-.139.833-.159 1.041-.044 1.214zm-29.399-3.892h-1.691l-.826 3.892h-.663l.827-3.892h-1.691l.123-.576h4.042zm18.479-.112c-1.022 0-1.947.586-2.198 1.77-.253 1.183.424 1.772 1.444 1.772h.024c1.011-.009 1.925-.598 2.175-1.772.247-1.174-.415-1.761-1.422-1.77zm10.181.114h-1.87l-.303 1.418h1.852.015c.64-.006.876-.397.944-.705.089-.428-.106-.713-.638-.713z" fill-rule="nonzero"/><path d="m22.518 16.158h-9.573l2.129-9.27h12.022l-.108 5.626 2.578-5.626h2.882l.06 5.626 2.354-5.626h3.516l-.382.75c.888-.596 2.337-1.063 4.7-1.089 6.271-.069 5.072 3.058 5.072 3.058l-4.148-.02s.3-.946-1.405-.946c-1.775 0-1.657.888-1.287 1.14.823.555 6.536-.185 6.536 2.64 0 1.683-.97 4.096-6.233 4.096-4.341 0-5.119-.926-5.407-1.89-.209-.704.003-1.304.003-1.304h4.272s-.211.892 1.468.892 1.488-.756 1.496-.922c.041-.87-3.232-.576-4.677-1.074-1.259-.434-1.708-1.161-1.789-1.843l-2.952 5.782h-3.52l-.076-5.089-2.344 5.089h-3.561l-.347-6.992-5.705-.005-.252 1.185h5.568l-.512 2.299h-5.568l-.286 1.26h5.988zm41.245-6.387c-3.052.632-6.325 2.056-7.419 6.746h15.426l.654-3.057h-10.206c.396-.456 1.017-.737 2.114-.932l4.586-.824c1.828-.335 4.42-1.265 4.916-3.584.732-3.409-2.878-4.112-6.883-4.112-3.111 0-7.256.563-8.525 4.761h5.27c.482-1.581 1.862-1.704 3.196-1.704 1.14 0 1.943.282 1.791.984-.109.51-.509.826-1.152.948zm-5.489-5.448-2.615 12.194h-4.604l1.488-6.94h-3.724l.655-3.058h.738c2.17-.033 3.395-.509 4.355-2.196zm-45.787 11.835h-3.879l-2.66-5.272-1.129 5.275-3.385-.003 2.062-9.27h4.076l2.406 5.109 1.198-5.109h3.422z" fill="#fbbe11"/></g></svg>

<?xml version="1.0" encoding="UTF-8" standalone="no"?>
<!DOCTYPE svg PUBLIC "-//W3C//DTD SVG 1.1//EN" "http://www.w3.org/Graphics/SVG/1.1/DTD/svg11.dtd">
<svg width="100%" height="100%" viewBox="0 0 560 400" version="1.1" xmlns="http://www.w3.org/2000/svg" xmlns:xlink="http://www.w3.org/1999/xlink" xml:space="preserve" xmlns:serif="http://www.serif.com/" style="fill-rule:evenodd;clip-rule:evenodd;stroke-linejoin:round;stroke-miterlimit:1.41421;">
    <g transform="matrix(4.66704,0,0,4.66704,-1499.16,-1305.27)">
        <g id="path14750" transform="matrix(0.352778,0,0,-0.352778,403.998,314.554)">
            <path d="M0,0C14.321,7.037 31.155,6.841 37.663,-2.786C44.546,-12.968 35.252,-22.764 23.327,-33.487L22.987,-33.347C32.511,-24.983 39.126,-13.546 35.1,-6.463C29.771,2.906 16.842,3.538 2.797,-0.51C-1.047,-1.618 -7.185,-4.358 -8.95,-5.59C-9.411,-5.911 -5.579,-2.74 0,0" style="fill:rgb(187,26,45);"/>
        </g>
        <g id="path14754" transform="matrix(0.352778,0,0,-0.352778,391.646,326.743)">
            <path d="M0,0C1.954,14.264 18.486,27.757 32.878,34.511C47.781,41.499 68.511,41.174 73.712,29.964C77.533,21.736 71.909,9.694 61.376,0.446L61.742,0.291C74.94,12.151 84.631,22.602 77.167,34.038C70.106,44.848 45.222,44.98 24.718,31.861C19.824,28.732 0.843,19.17 0,0" style="fill:rgb(29,98,175);"/>
        </g>
        <g id="path14766" transform="matrix(1,0,0,1,342.11,311.448)">
            <path d="M71.315,18.379L70.652,18.379C70.671,18.027 70.571,17.552 69.5,17.552L69.49,17.552C69.004,17.555 68.418,17.763 68.307,18.283C68.249,18.559 68.383,18.779 68.915,18.872L69.971,19.059C70.307,19.122 71.265,19.291 71.071,20.206C70.83,21.334 69.757,21.665 68.86,21.67L68.839,21.67C67.831,21.67 66.861,21.32 67.121,20.087L67.785,20.087L67.783,20.096C67.634,20.89 68.337,21.095 69.011,21.095L69.027,21.095C69.726,21.091 70.275,20.822 70.379,20.336C70.465,19.931 70.182,19.762 69.688,19.672L68.709,19.504C68.197,19.416 67.447,19.204 67.632,18.335C67.807,17.52 68.565,16.976 69.711,16.976C70.605,16.976 71.481,17.3 71.315,18.379ZM42.154,16.976C43.931,16.985 44.362,18.182 44.117,19.322C43.874,20.463 42.938,21.66 41.157,21.669L41.136,21.669C39.339,21.669 38.907,20.468 39.149,19.322C39.392,18.177 40.336,16.976 42.133,16.976L42.154,16.976ZM14.708,17.666L11.778,17.666L11.502,18.959L14.344,18.959L14.222,19.535L11.381,19.535L11.074,20.98L14.065,20.98L13.942,21.558L10.288,21.558L11.238,17.088L14.829,17.088L14.708,17.666ZM62.242,21.557L61.326,21.557L59.964,19.379L58.996,20.099L58.688,21.557L58.024,21.557L58.973,17.088L59.637,17.088L59.158,19.336L62.134,17.088L63.073,17.088L60.556,18.94L62.242,21.557ZM1.202,21.557L0.54,21.557L1.489,17.089L2.258,17.089L4.376,20.644L4.386,20.644L5.143,17.089L5.806,17.089L4.857,21.557L4.087,21.557L1.97,18.002L1.957,18.002L1.202,21.557ZM31.92,17.089L32.376,20.718L32.388,20.718L34.298,17.089L34.987,17.089L32.523,21.557L31.797,21.557L31.345,17.853L31.333,17.853L29.313,21.557L28.58,21.557L28.059,17.089L28.779,17.089L29.153,20.718L29.165,20.718L31.132,17.089L31.92,17.089ZM52.931,21.556L52.23,21.556C52.149,21.432 52.189,21.243 52.273,20.707C52.399,19.904 52.181,19.662 51.63,19.662L49.898,19.662L49.495,21.556L48.831,21.556L49.78,17.09L52.547,17.09L52.568,17.09C53.445,17.099 53.634,17.713 53.514,18.279C53.399,18.823 53.051,19.223 52.528,19.38L52.526,19.391C52.908,19.447 53.062,19.818 52.975,20.342C52.836,21.175 52.816,21.383 52.931,21.556ZM23.532,17.664L21.841,17.664L21.015,21.556L20.352,21.556L21.179,17.664L19.488,17.664L19.611,17.088L23.653,17.088L23.532,17.664ZM42.011,17.552C40.989,17.552 40.064,18.138 39.813,19.322C39.56,20.505 40.237,21.094 41.257,21.094L41.281,21.094C42.292,21.085 43.206,20.496 43.456,19.322C43.703,18.148 43.041,17.561 42.034,17.552L42.011,17.552ZM52.192,17.666L50.322,17.666L50.019,19.084L51.871,19.084L51.886,19.084C52.526,19.078 52.762,18.687 52.83,18.379C52.919,17.951 52.724,17.666 52.192,17.666Z" style="fill-rule:nonzero;"/>
        </g>
        <g id="path14758" transform="matrix(1,0,0,1,342.11,311.448)">
            <path d="M22.518,16.158L12.945,16.158L15.074,6.888L27.096,6.888L26.988,12.514L29.566,6.888L32.448,6.888L32.508,12.514L34.862,6.888L38.378,6.888L37.996,7.638C38.884,7.042 40.333,6.575 42.696,6.549C48.967,6.48 47.768,9.607 47.768,9.607L43.62,9.587C43.62,9.587 43.92,8.641 42.215,8.641C40.44,8.641 40.558,9.529 40.928,9.781C41.751,10.336 47.464,9.596 47.464,12.421C47.464,14.104 46.494,16.517 41.231,16.517C36.89,16.517 36.112,15.591 35.824,14.627C35.615,13.923 35.827,13.323 35.827,13.323L40.099,13.323C40.099,13.323 39.888,14.215 41.567,14.215C43.246,14.215 43.055,13.459 43.063,13.293C43.104,12.423 39.831,12.717 38.386,12.219C37.127,11.785 36.678,11.058 36.597,10.376L33.645,16.158L30.125,16.158L30.049,11.069L27.705,16.158L24.144,16.158L23.797,9.166L18.092,9.161L17.84,10.346L23.408,10.346L22.896,12.645L17.328,12.645L17.042,13.905L23.03,13.905L22.518,16.158ZM63.763,9.771C60.711,10.403 57.438,11.827 56.344,16.517L71.77,16.517L72.424,13.46L62.218,13.46C62.614,13.004 63.235,12.723 64.332,12.528L68.918,11.704C70.746,11.369 73.338,10.439 73.834,8.12C74.566,4.711 70.956,4.008 66.951,4.008C63.84,4.008 59.695,4.571 58.426,8.769L63.696,8.769C64.178,7.188 65.558,7.065 66.892,7.065C68.032,7.065 68.835,7.347 68.683,8.049C68.574,8.559 68.174,8.875 67.531,8.997L63.763,9.771ZM58.274,4.323L55.659,16.517L51.055,16.517L52.543,9.577L48.819,9.577L49.474,6.519L50.212,6.519C52.382,6.486 53.607,6.01 54.567,4.323L58.274,4.323ZM12.487,16.158L8.608,16.158L5.948,10.886L4.819,16.161L1.434,16.158L3.496,6.888L7.572,6.888L9.978,11.997L11.176,6.888L14.598,6.888L12.487,16.158Z" style="fill:rgb(251,190,17);"/>
        </g>
    </g>
</svg>
